X:1
T:Bidin' My Time
T:Bidin' My Time
C:George Gershwin
Z:All Rights Reserved
L:1/8
M:4/4
K:Eb
V:1 treble nm="Voice"
%%MIDI program 52
V:1
|:"Ebmaj7" G4"C7b9" AG A2 |"Fm7" (B3"^7" F-)"Bb7" F3 F |"Ebmaj7" G3 G"C7b9" AG A2 | %3
w: I'm bid- in' my|time, _ _ 'Cause|that's the kind- a guy|
w: I'm bid- in' my|time, _ _ 'Cause|thhat's the kind- a guy|
"Fm7" (B3 F-)"Bb7" F2 B2 |"Eb6" eeee"C+7" =e c3 |"Fm7" _e2 c2"Db9" B A3 | %6
w: I'm. _ _ While|oth- er folks grow diz- zy|I keep bus- y|
w: I'm. _ _ Be|gin- nin' on a Mon- day|right thru Sun- day,|
"Eb6/Bb" G4"Fm7" F"Bb7" F3 |"Eb6" E8 |"G7" G3 G-"C6" G4 |"G7" G3 G-"C6" G4 | %10
w: bid- in' my|time.|Next year, _|Next year, _|
w: bid- in' my|time.|Give me, _|give me, _|
"Dm7" =A2 A2"G7" G2 F2 |"C6" =A3 G- G4 |"Bb7" B3 B-"Eb6" B4 |"Bb7" B3 B-"Eb6" B4 | %14
w: some- thin's bound to|hap- pen. _|This year, _|this year, _|
w: glass that's full of|tin- kle. _|Let me, _|let me, _|
"Cm7" e2 e2"F7" d2 c2 |"Fm7" c3 B-"Bb7" B2 A2 |"Ebmaj7" G4"C7b9" (AG) A2 |"Fm7" (B3 F-)"Bb7" F3 F | %18
w: I'll just keep on|nap- pin' _ and|bid- in' _ my|time _ _ 'Cause|
w: dream like Rip Van|Win- kle. _ _|He bid- ed his|time. _ _ And|
"Ebmaj7" G3 G"C7b9" AG A2 |"Fm7" (B3 F-)"Bb7" F2 B2 |"Eb6" e2 e2"C+7" =e c3 | %21
w: that's the kind- a guy|I'm. _ _ There's|no re- gret- tin|
w: like that Win- kle guy|I'm. _ _ Just|chas- in' way flies,|
"Fm7" _e2 c2"Db9" B A3 |"Eb6/Bb" G4"Fm7" F"Bb7" F3 |1"Eb6" E4"Bb7" z4 :|2"Eb6" E4 z4 |] %25
w: when I'm set- tin'|bid- in' my|time.||
w: how the day flies,|bid- in' my|.|time.|

